icon-svg/ollama.svg

<svg xmlns="http://www.w3.org/2000/svg" viewBox="0 0 24 24"><path fill="#44739e" 
     d="M 16.158203 2.0019531 C 16.114723 2.0003223 16.070641 2.0010313 16.025391 2.0039062 C 15.195391 2.0529062 14.527672 3.0077203 14.263672 4.5117188 A 6 6 0 0 0 14.183594 5.1152344 C 14.183594 5.1452343 14.176922 5.1699219 14.169922 5.1699219 C 14.162922 5.1699219 14.107875 5.1414687 14.046875 5.1054688 C 13.406876 4.7264691 12.693999 4.5234375 12 4.5234375 C 11.306001 4.5234375 10.593124 4.7264691 9.953125 5.1054688 A 1 1 0 0 1 9.8300781 5.1699219 C 9.8230781 5.1699219 9.8164063 5.1452343 9.8164062 5.1152344 C 9.8164062 5.0352345 9.7783281 4.7437185 9.7363281 4.5117188 C 9.4963284 3.1607201 8.9477961 2.2650623 8.2167969 2.0390625 C 8.116797 2.0090625 7.8305155 1.9898594 7.7285156 2.0058594 A 1.4 1.4 0 0 0 7.1582031 2.2539062 C 6.6802036 2.6169059 6.3112967 3.3886103 6.1542969 4.3496094 A 9 9 0 0 0 6.0546875 5.6015625 C 6.0546875 6.055562 6.1075938 6.6341567 6.1835938 7.0351562 A 0.6 0.6 0 0 1 6.203125 7.2109375 L 6.0488281 7.3359375 C 5.7788284 7.5509373 5.4698123 7.8825472 5.2578125 8.1855469 A 4.6 4.6 0 0 0 4.4746094 10.134766 C 4.4316094 10.415765 4.419125 10.984625 4.453125 11.265625 C 4.5291249 11.914624 4.7255472 12.464797 5.0605469 12.966797 L 5.1699219 13.128906 L 5.1386719 13.181641 C 4.9146721 13.55764 4.7237655 14.102001 4.6347656 14.625 C 4.5637657 15.038 4.5546875 15.149126 4.5546875 15.703125 C 4.5546875 16.262124 4.5629063 16.372766 4.6289062 16.759766 C 4.7079062 17.221765 4.8678752 17.71111 5.046875 18.037109 C 5.1058749 18.143109 5.2505781 18.364953 5.2675781 18.376953 C 5.2735781 18.378953 5.2555156 18.431188 5.2285156 18.492188 A 6.2 6.2 0 0 0 4.7714844 20.054688 C 4.7204844 20.402687 4.7128906 20.51486 4.7128906 20.880859 C 4.7128906 21.347859 4.7379376 21.574313 4.8359375 21.945312 L 4.8496094 22 L 6.0800781 22 L 6.0410156 21.923828 C 5.7920159 21.463829 5.7684221 20.610765 5.9824219 19.759766 C 6.0804218 19.365766 6.1924377 19.077687 6.3984375 18.679688 L 6.5214844 18.439453 L 6.5214844 18.291016 C 6.5214844 18.153016 6.5196093 18.136875 6.4746094 18.046875 A 0.7 0.7 0 0 0 6.3125 17.839844 A 1.5 1.5 0 0 1 5.9921875 17.386719 C 5.6391879 16.61972 5.5703596 15.480765 5.8183594 14.509766 C 5.9223593 14.104766 6.0914846 13.745828 6.2714844 13.548828 A 0.66 0.66 0 0 0 6.4570312 13.105469 A 0.6 0.6 0 0 0 6.2695312 12.671875 A 2.62 2.62 0 0 1 5.5898438 11.230469 C 5.4738439 10.43047 5.685063 9.5581868 6.1640625 8.8671875 C 6.634062 8.1891882 7.2922976 7.7546718 8.0292969 7.6386719 C 8.1942967 7.6116719 8.5027814 7.6164375 8.6757812 7.6484375 C 8.8637811 7.6814375 8.9815626 7.6712812 9.1015625 7.6132812 C 9.2515624 7.5432813 9.3260626 7.454906 9.4140625 7.2539062 C 9.4910624 7.0749064 9.5528439 6.9764373 9.7148438 6.7734375 C 9.9098436 6.5314377 10.096438 6.3679685 10.398438 6.1679688 A 3.3 3.3 0 0 1 11.525391 5.6992188 C 11.66739 5.6702188 11.734 5.6660156 12 5.6660156 C 12.266 5.6660156 12.33261 5.6702188 12.474609 5.6992188 A 3.4 3.4 0 0 1 14.068359 6.5292969 C 14.166359 6.6202968 14.401563 6.9102501 14.476562 7.03125 C 14.504562 7.07825 14.554938 7.1789063 14.585938 7.2539062 C 14.673937 7.454906 14.748438 7.5432813 14.898438 7.6132812 C 15.014437 7.6692812 15.135406 7.6813906 15.316406 7.6503906 A 2 2 0 0 1 16.103516 7.6621094 C 17.056515 7.8551092 17.885907 8.6403604 18.253906 9.6933594 C 18.573906 10.616358 18.483812 11.584266 18.007812 12.322266 A 2.4 2.4 0 0 1 17.730469 12.671875 C 17.478469 12.939875 17.478516 13.272828 17.728516 13.548828 C 18.139515 13.997828 18.396359 15.103126 18.318359 16.078125 C 18.267359 16.721124 18.101 17.297047 17.875 17.623047 A 2 2 0 0 1 17.6875 17.839844 A 0.7 0.7 0 0 0 17.525391 18.046875 C 17.480391 18.136875 17.478516 18.153016 17.478516 18.291016 L 17.478516 18.439453 L 17.601562 18.679688 C 17.807562 19.077687 17.919578 19.365766 18.017578 19.759766 C 18.228578 20.599765 18.20975 21.435157 17.96875 21.910156 C 17.94875 21.950156 17.931641 21.988188 17.931641 21.992188 C 17.931641 21.996187 18.205016 22 18.541016 22 L 19.150391 22 L 19.164062 21.9375 L 19.195312 21.826172 C 19.210312 21.763172 19.243531 21.575484 19.269531 21.396484 A 8 8 0 0 0 19.269531 20.349609 C 19.177531 19.61961 19.022484 19.039187 18.771484 18.492188 C 18.744484 18.431188 18.726422 18.378953 18.732422 18.376953 C 18.739422 18.371953 18.781219 18.313047 18.824219 18.248047 C 19.137218 17.774047 19.329734 17.178577 19.427734 16.392578 C 19.453734 16.175578 19.453734 15.243156 19.427734 15.035156 C 19.358734 14.498157 19.274719 14.134625 19.136719 13.765625 A 5 5 0 0 0 18.861328 13.181641 L 18.830078 13.128906 L 18.939453 12.966797 C 19.274453 12.464797 19.470875 11.914624 19.546875 11.265625 C 19.580875 10.984625 19.568391 10.415765 19.525391 10.134766 A 4.6 4.6 0 0 0 18.742188 8.1855469 A 4.4 4.4 0 0 0 17.951172 7.3359375 L 17.796875 7.2109375 A 0.6 0.6 0 0 1 17.816406 7.0351562 A 8 8 0 0 0 17.800781 4.1152344 C 17.642781 3.3462351 17.356328 2.7358121 16.986328 2.3828125 C 16.727328 2.1360627 16.462566 2.0133691 16.158203 2.0019531 z M 7.9042969 3.1328125 C 7.9220469 3.1345625 7.9406563 3.1497813 7.9726562 3.1757812 C 8.179656 3.3387811 8.4090158 3.8060786 8.5410156 4.3300781 A 5 5 0 0 1 8.6328125 4.7675781 C 8.6888124 5.0725778 8.7147969 5.4027348 8.7167969 5.8027344 L 8.71875 6.1972656 L 8.6191406 6.34375 L 8.5214844 6.4921875 L 8.2890625 6.4921875 C 8.0200628 6.4921875 7.7511404 6.5267032 7.4941406 6.5957031 L 7.296875 6.6445312 C 7.268875 6.6505312 7.2640469 6.6423905 7.2480469 6.5253906 A 7 7 0 0 1 7.2617188 4.5898438 C 7.3657186 3.9338444 7.6067971 3.3371092 7.8417969 3.1621094 C 7.8697968 3.1411094 7.8865469 3.1310625 7.9042969 3.1328125 z M 16.097656 3.1347656 C 16.115406 3.1331406 16.131656 3.1425625 16.160156 3.1640625 C 16.302156 3.2690624 16.458219 3.5482972 16.574219 3.9042969 C 16.808219 4.6162962 16.874953 5.5943916 16.751953 6.5253906 C 16.735953 6.6423905 16.731125 6.6505312 16.703125 6.6445312 L 16.505859 6.5957031 A 3 3 0 0 0 15.710938 6.4921875 L 15.478516 6.4921875 L 15.380859 6.34375 L 15.28125 6.1972656 L 15.283203 5.8027344 C 15.285203 5.2457349 15.336938 4.8101714 15.460938 4.3261719 C 15.590937 3.8061724 15.822344 3.3387811 16.027344 3.1757812 C 16.059844 3.1497813 16.079906 3.1363906 16.097656 3.1347656 z M 11.777344 10.392578 C 11.466344 10.422578 11.381422 10.432891 11.232422 10.462891 A 4 4 0 0 0 10.439453 10.736328 C 9.6554539 11.120328 9.1142186 11.759048 8.9492188 12.498047 C 8.9162188 12.645047 8.9121094 12.693453 8.9121094 12.939453 C 8.9121094 13.184453 8.9172188 13.237953 8.9492188 13.376953 C 9.1682185 14.342952 10.059939 15.0565 11.210938 15.1875 C 11.460937 15.2145 12.539063 15.2145 12.789062 15.1875 C 13.714062 15.0825 14.509188 14.582906 14.867188 13.878906 C 14.961187 13.690906 15.007781 13.567953 15.050781 13.376953 C 15.082781 13.237953 15.087891 13.184453 15.087891 12.939453 C 15.087891 12.693453 15.083781 12.645047 15.050781 12.498047 C 14.810781 11.424048 13.768233 10.577969 12.490234 10.417969 A 6 6 0 0 0 11.777344 10.392578 z M 8.1621094 10.527344 A 0.85 0.85 0 0 0 7.9648438 10.554688 A 0.84 0.84 0 0 0 7.4238281 11.087891 A 1 1 0 0 0 7.3730469 11.519531 A 0.74 0.74 0 0 0 7.8710938 12.076172 C 8.1720934 12.155172 8.3986564 12.102297 8.5976562 11.904297 A 0.94 0.94 0 0 0 8.8417969 11.53125 C 8.8877968 11.41725 8.890625 11.397328 8.890625 11.236328 L 8.890625 11.064453 L 8.8300781 10.941406 A 0.74 0.74 0 0 0 8.359375 10.548828 A 0.85 0.85 0 0 0 8.1621094 10.527344 z M 15.828125 10.529297 A 0.9 0.9 0 0 0 15.634766 10.550781 A 0.75 0.75 0 0 0 15.169922 10.941406 L 15.109375 11.064453 L 15.109375 11.236328 C 15.109375 11.397328 15.112203 11.41725 15.158203 11.53125 C 15.221203 11.69225 15.285344 11.791297 15.402344 11.904297 C 15.601344 12.102297 15.827907 12.155172 16.128906 12.076172 A 0.72 0.72 0 0 0 16.558594 11.712891 A 0.63 0.63 0 0 0 16.625 11.298828 C 16.572 10.920829 16.350484 10.646781 16.021484 10.550781 A 0.9 0.9 0 0 0 15.828125 10.529297 z M 11.992188 11.160156 C 12.114187 11.160031 12.236453 11.165828 12.314453 11.173828 C 12.741453 11.219828 13.170625 11.371563 13.515625 11.601562 C 13.700625 11.724562 13.962219 11.983344 14.074219 12.152344 C 14.211219 12.362344 14.290172 12.575938 14.326172 12.835938 C 14.342172 12.954937 14.332062 13.045281 14.289062 13.238281 C 14.222063 13.525281 14.013468 13.825156 13.730469 14.035156 A 2.6 2.6 0 0 1 13.15625 14.324219 C 12.83725 14.426219 12.628765 14.444453 11.884766 14.439453 C 11.399766 14.434453 11.313828 14.430297 11.173828 14.404297 C 10.698495 14.314964 10.324781 14.126557 10.050781 13.837891 C 9.8297815 13.604891 9.7278281 13.393781 9.6738281 13.050781 C 9.6488281 12.890781 9.6950626 12.625344 9.7890625 12.402344 C 9.9020624 12.131344 10.194375 11.795562 10.484375 11.601562 A 2.76 2.76 0 0 1 11.669922 11.173828 C 11.747922 11.165328 11.870188 11.160281 11.992188 11.160156 z M 12.349609 12.191406 C 12.244609 12.191406 12.176734 12.217875 12.052734 12.296875 L 11.982422 12.339844 L 11.9375 12.3125 C 11.7555 12.2045 11.722328 12.191359 11.611328 12.193359 A 0.33 0.33 0 0 0 11.451172 12.220703 C 11.342172 12.279703 11.266063 12.428063 11.289062 12.539062 C 11.315062 12.658062 11.419985 12.779906 11.583984 12.878906 C 11.670984 12.931906 11.677641 12.939188 11.681641 12.992188 C 11.684641 13.024187 11.67225 13.114313 11.65625 13.195312 C 11.63925 13.274312 11.626953 13.357859 11.626953 13.380859 C 11.627953 13.442859 11.686094 13.542797 11.746094 13.591797 C 11.799094 13.634797 11.808031 13.636625 11.957031 13.640625 C 12.094031 13.644625 12.123734 13.641234 12.177734 13.615234 C 12.318734 13.546234 12.354734 13.420734 12.302734 13.177734 C 12.259734 12.975735 12.269953 12.943812 12.376953 12.882812 A 0.75 0.75 0 0 0 12.646484 12.619141 A 0.304 0.304 0 0 0 12.5 12.220703 A 0.3 0.3 0 0 0 12.349609 12.191406 z " />
</svg>

<svg xmlns="http://www.w3.org/2000/svg" viewBox="0 0 24 24"><path fill="#44739e" d="M16.158 2.002q-.064-.003-.133.002c-.83.049-1.497 1.004-1.761 2.508a6 6 0 0 0-.08.603c0 .03-.007.055-.014.055a1 1 0 0 1-.123-.065A4.05 4.05 0 0 0 12 4.523a4.05 4.05 0 0 0-2.047.582 1 1 0 0 1-.123.065c-.007 0-.014-.025-.014-.055 0-.08-.038-.371-.08-.603-.24-1.351-.788-2.247-1.52-2.473-.1-.03-.385-.05-.487-.033a1.4 1.4 0 0 0-.57.248c-.479.363-.848 1.135-1.005 2.096a9 9 0 0 0-.1 1.252c0 .454.054 1.032.13 1.433a.6.6 0 0 1 .02.176l-.155.125c-.27.215-.58.547-.791.85a4.6 4.6 0 0 0-.783 1.949c-.043.28-.056.85-.022 1.13.076.65.273 1.2.608 1.702l.109.162-.031.053c-.224.376-.415.92-.504 1.443-.071.413-.08.524-.08 1.078 0 .56.008.67.074 1.057.079.462.239.951.418 1.277.059.106.204.328.22.34.007.002-.011.054-.038.115a6.2 6.2 0 0 0-.458 1.563c-.05.348-.058.46-.058.826 0 .467.025.693.123 1.064L4.85 22h1.23l-.039-.076c-.249-.46-.273-1.313-.059-2.164a4.5 4.5 0 0 1 .416-1.08l.123-.24v-.149c0-.138-.001-.154-.046-.244a.7.7 0 0 0-.162-.207 1.5 1.5 0 0 1-.32-.453c-.354-.767-.423-1.906-.175-2.877.104-.405.273-.764.453-.961a.66.66 0 0 0 .186-.444.6.6 0 0 0-.187-.433 2.62 2.62 0 0 1-.68-1.442c-.116-.8.095-1.672.574-2.363.47-.678 1.128-1.112 1.865-1.228.165-.027.474-.023.647.01.188.032.306.022.426-.036.15-.07.224-.158.312-.36.077-.178.139-.277.3-.48a2.7 2.7 0 0 1 .684-.605 3.3 3.3 0 0 1 1.127-.469c.142-.029.209-.033.475-.033s.333.004.475.033a3.4 3.4 0 0 1 1.593.83 4 4 0 0 1 .409.502c.028.047.078.148.109.223.088.2.162.29.312.36.116.055.237.067.418.036a2 2 0 0 1 .788.012c.953.193 1.782.978 2.15 2.031.32.923.23 1.891-.246 2.63a2.4 2.4 0 0 1-.278.349c-.252.268-.251.6-.001.877.41.449.667 1.554.59 2.53-.052.642-.218 1.218-.444 1.544a2 2 0 0 1-.187.217.7.7 0 0 0-.163.207c-.045.09-.046.106-.046.244v.148l.123.24c.206.399.318.687.416 1.08.21.84.192 1.676-.05 2.151a1 1 0 0 0-.036.082c0 .004.273.008.609.008h.61l.013-.062.031-.112c.015-.063.049-.25.075-.43a8 8 0 0 0 0-1.046c-.092-.73-.248-1.31-.499-1.858-.027-.06-.045-.113-.039-.115a1 1 0 0 0 .092-.129c.313-.474.506-1.07.604-1.855.026-.217.026-1.15 0-1.358-.07-.537-.153-.9-.291-1.27a5 5 0 0 0-.276-.583l-.03-.053.108-.162a3.76 3.76 0 0 0 .608-1.701c.034-.281.021-.85-.022-1.131a4.6 4.6 0 0 0-.783-1.95 4.4 4.4 0 0 0-.79-.85l-.155-.124a.6.6 0 0 1 .02-.176 8 8 0 0 0-.016-2.92c-.158-.769-.445-1.38-.815-1.732-.259-.247-.523-.37-.828-.381m-8.254 1.13c.018.003.037.018.069.044.207.163.436.63.568 1.154a5 5 0 0 1 .092.438c.056.305.082.635.084 1.035l.002.394-.1.147-.098.148H8.29c-.269 0-.538.035-.795.104l-.197.049c-.028.006-.033-.003-.049-.12a7 7 0 0 1 .014-1.935c.104-.656.345-1.253.58-1.428.028-.02.045-.03.062-.03m8.194.003c.017-.002.034.008.062.03.142.104.298.383.414.74.234.711.301 1.69.178 2.62-.016.117-.02.126-.049.12l-.197-.05a3 3 0 0 0-.795-.103h-.232l-.098-.148-.1-.147.002-.394a5.7 5.7 0 0 1 .178-1.477c.13-.52.361-.987.566-1.15.033-.026.053-.04.07-.041m-4.32 7.258a5 5 0 0 0-.546.07 4 4 0 0 0-.793.273c-.784.384-1.325 1.023-1.49 1.762-.033.147-.037.195-.037.441 0 .245.005.299.037.438.22.966 1.11 1.68 2.262 1.81.25.027 1.328.027 1.578 0 .925-.104 1.72-.604 2.078-1.308.094-.188.14-.311.184-.502.032-.139.037-.193.037-.438 0-.246-.004-.294-.037-.441-.24-1.074-1.283-1.92-2.56-2.08a6 6 0 0 0-.714-.025m-3.616.134a1 1 0 0 0-.197.028.84.84 0 0 0-.541.533 1 1 0 0 0-.051.432.74.74 0 0 0 .498.556c.301.08.528.026.727-.172a.94.94 0 0 0 .244-.373c.046-.114.049-.134.049-.295v-.172l-.06-.123a.74.74 0 0 0-.472-.392 1 1 0 0 0-.197-.022m7.666.002a1 1 0 0 0-.193.022.75.75 0 0 0-.465.39l-.06.123v.172c0 .161.002.181.048.295a.94.94 0 0 0 .244.373c.2.198.426.251.727.172a.72.72 0 0 0 .43-.363.63.63 0 0 0 .066-.414c-.053-.378-.275-.652-.604-.748a1 1 0 0 0-.193-.022m-3.836.631a2.74 2.74 0 0 1 1.523.441c.186.124.447.382.56.551a1.6 1.6 0 0 1 .251.684c.016.119.006.21-.037.402-.067.287-.276.587-.559.797a2.6 2.6 0 0 1-.574.29c-.319.101-.527.12-1.271.114-.485-.005-.571-.009-.711-.035q-.714-.133-1.123-.566c-.221-.233-.323-.444-.377-.787-.025-.16.021-.426.115-.649.113-.27.405-.606.695-.8a2.76 2.76 0 0 1 1.186-.428c.078-.009.2-.014.322-.014m.358 1.031c-.105 0-.173.027-.297.106l-.07.043-.046-.027c-.181-.109-.215-.122-.326-.12a.33.33 0 0 0-.16.028c-.109.059-.185.207-.162.318.026.12.131.24.295.34.087.053.094.06.098.113a1 1 0 0 1-.026.203c-.017.08-.029.163-.029.186.001.062.06.162.12.21.052.044.061.046.21.05.137.004.167 0 .22-.026.142-.069.178-.194.126-.437-.043-.202-.033-.234.074-.295a.75.75 0 0 0 .27-.264.304.304 0 0 0-.147-.398.3.3 0 0 0-.15-.03"/></svg>
